brandFactory_export/1.Light/Aeropuerto_Avion_1Light.svg

<?xml version="1.0" encoding="UTF-8"?>
<svg width="24px" height="24px" viewBox="0 0 24 24" version="1.1" xmlns="http://www.w3.org/2000/svg" xmlns:xlink="http://www.w3.org/1999/xlink">
    <title>1.Light/Aeropuerto_Avion_1Light</title>
    <g id="Symbols" stroke="none" stroke-width="1" fill="none" fill-rule="evenodd">
        <g id="1.Light/Aeropuerto_Avion_1Light" fill="#5CB615" fill-rule="nonzero">
            <path d="M17.2235294,8.7697479 C17.102521,8.88067227 17.0420168,9.04537815 17.0689076,9.21008403 L18.7226891,19.7378151 L17.7680672,20.205042 L14.0840336,12.4369748 C14.0168067,12.2957983 13.8890756,12.1983193 13.7378151,12.1647059 C13.5865546,12.1310924 13.4285714,12.1747899 13.3109244,12.2789916 C12.2285714,13.2403361 11.1798319,14.2352941 10.1680672,15.2705882 C9.21680672,16.2285714 8.46722689,16.9848739 7.10588235,18.0302521 C6.97478992,18.1310924 6.90084034,18.292437 6.91428571,18.4605042 L7.19663866,22.1109244 L6.40672269,22.4907563 L4.38319328,19.0857143 C4.34621849,19.0218487 4.29243697,18.9680672 4.23193277,18.9277311 L1.17310924,16.9176471 L1.58991597,16.2789916 L4.98823529,16.5277311 C5.15294118,16.5411765 5.31428571,16.4672269 5.41176471,16.3361345 C6.42352941,15.0285714 7.18991597,14.2823529 8.16134454,13.3378151 C8.97478992,12.5478992 9.89243697,11.6537815 11.1966387,10.2084034 C11.3781513,10.0033613 11.3613445,9.6907563 11.1563025,9.5092437 C11.1193277,9.4789916 11.0823529,9.45210084 11.0386555,9.43193277 L3.32436975,5.86554622 L3.93613445,4.8907563 L14.4235294,6.43361345 C14.5815126,6.45378151 14.7462185,6.4 14.8537815,6.28235294 C16.4806723,4.52436975 18.994958,1.82857143 19.2470588,1.60336134 C19.7243697,1.17310924 20.2084034,0.978151261 20.6689076,0.991596639 C21.1361345,1.01512605 21.589916,1.27058824 22.0201681,1.74789916 C22.8806723,2.70252101 22.8302521,3.66386555 21.8756303,4.52436975 C21.5428571,4.82352941 17.2235294,8.7697479 17.2235294,8.7697479 M22.7529412,1.08907563 C22.1512605,0.420168067 21.4487395,0.0470588235 20.7226891,0.00672268908 C19.9932773,-0.043697479 19.2571429,0.265546218 18.5915966,0.867226891 C18.2554622,1.1697479 15.1596639,4.50420168 14.312605,5.42184874 L3.76470588,3.86890756 C3.57310924,3.84537815 3.38487395,3.93277311 3.27731092,4.09411765 L2.19495798,5.81512605 C2.05042017,6.04369748 2.11764706,6.34621849 2.34621849,6.49411765 C2.36638655,6.50756303 2.38655462,6.51764706 2.40672269,6.52773109 L10.0168067,10.0470588 C9.19663866,10.9344538 8.34957983,11.7983193 7.47563025,12.6352941 C6.52773109,13.5563025 5.76806723,14.292437 4.79663866,15.5294118 L1.37142857,15.2806723 C1.19327731,15.2672269 1.02184874,15.3512605 0.924369748,15.502521 L0.0806722689,16.789916 C-0.0672268908,17.0184874 -0.00672268908,17.3210084 0.221848739,17.4722689 L3.59663866,19.6907563 L5.79159664,23.3848739 C5.92268908,23.6033613 6.19831933,23.687395 6.42689076,23.5764706 L7.92605042,22.8537815 C8.10756303,22.7663866 8.21848739,22.5747899 8.20168067,22.3731092 L7.91596639,18.6487395 C9.19663866,17.6470588 9.9394958,16.9008403 10.8672269,15.9663866 C11.5529412,15.2739496 12.3193277,14.5008403 13.4756303,13.4554622 L17.0957983,21.0789916 C17.2134454,21.3243697 17.5058824,21.4285714 17.7512605,21.3142857 C17.7512605,21.3142857 17.7546218,21.3142857 17.7546218,21.3109244 L19.4857143,20.4638655 C19.6806723,20.3697479 19.7882353,20.1579832 19.7546218,19.9428571 L18.0840336,9.31764706 C18.9277311,8.54453782 22.2420168,5.51932773 22.5344538,5.25714286 C23.9058824,4.02016807 23.9865546,2.4605042 22.7529412,1.08907563" id="Aeropuerto_Avion_1Light"></path>
        </g>
    </g>
</svg>

<svg width="24" height="24" viewBox="0 0 24 24" xmlns="http://www.w3.org/2000/svg"><path d="M17.224 8.77a.49.49 0 00-.155.44l1.654 10.528-.955.467-3.684-7.768a.5.5 0 00-.346-.272.486.486 0 00-.427.114 61.407 61.407 0 00-3.143 2.992c-.951.958-1.7 1.714-3.062 2.76a.494.494 0 00-.192.43l.283 3.65-.79.38-2.024-3.405a.486.486 0 00-.151-.158l-3.059-2.01.417-.639 3.398.249a.482.482 0 00.424-.192c1.012-1.307 1.778-2.054 2.75-2.998a59.703 59.703 0 003.035-3.13.495.495 0 00-.158-.776L3.324 5.866l.612-.975 10.488 1.543a.5.5 0 00.43-.152c1.627-1.758 4.141-4.453 4.393-4.679.477-.43.961-.625 1.422-.611.467.023.92.279 1.351.756.86.955.81 1.916-.144 2.776-.333.3-4.652 4.246-4.652 4.246m5.529-7.68C22.15.42 21.449.046 20.723.006c-.73-.05-1.466.259-2.131.86-.337.303-3.432 3.637-4.28 4.555L3.766 3.869a.511.511 0 00-.488.225L2.195 5.815a.494.494 0 00.151.68c.02.013.04.023.06.033l7.61 3.52a59.518 59.518 0 01-2.54 2.587c-.948.921-1.708 1.657-2.68 2.894l-3.425-.248a.487.487 0 00-.447.222L.081 16.79a.493.493 0 00.14.682l3.376 2.219 2.195 3.694a.492.492 0 00.635.191l1.5-.722a.49.49 0 00.275-.48l-.286-3.725c1.28-1.002 2.023-1.748 2.951-2.683a59.741 59.741 0 012.609-2.51l3.62 7.623c.117.245.41.35.655.235 0 0 .004 0 .004-.003l1.73-.847a.492.492 0 00.27-.521L18.084 9.318c.844-.773 4.158-3.799 4.45-4.06 1.372-1.238 1.453-2.797.219-4.169" fill="#5CB615" fill-rule="nonzero"/></svg>
